X:1
T:The Glasgow Gaelic Club
R:Pipe march
Z:2005 John Chambers <jc:trillian.mit.edu>
N:chords by John Chambers 2005-5
M:6/8
Z:Richard Robinson <richard:beulah.demon.co.uk> modified by John Chambers
K:Bm
B |\
"Bm"dcB BAF | "Bm"BAB "E7"d2B | "A"cBA    c<eA | "A"cea ecA |\
"Bm"dcB BAF | "Bm"BAB  "G"d2e | "D"f<af "A"edc | "Bm"dBB B2 :|
|: c |\
 "D"dfa dfa |  "D"dfa    fed | "A"c<eA "D"d<fA | "A"cea ecA |\
"Bm"dcB BAF | "Bm"B2B "G"d2e | "D"f<af "A"edc  | "Bm"dBB B2 :|
